X:1
T:Title
%%score { ( 1 3 ) | ( 2 4 ) }
L:1/8
M:4/4
K:F
V:1 treble nm="Grand Piano"
V:3 treble 
V:2 bass 
V:4 bass 
V:1
 z4 z2[Q:1/4=80] [CFA][B,CG] | [A,CF][G,CE][F,CF][CEG] [CFA]2 [CGB][CFA] |[M:3/4] G6 | %3
[M:1/4] [EG][FA] |[M:4/4] [EB][EB][EB][EB] [EB]2 [Ac][GB] |[M:3/4] BA AA A2 |[M:1/4] AB | %7
[M:4/4] c2 c2 cB[CEG][^CF] | [DB]2 z2 z4 | [FA]2 [FA][GB] [Fc]2 EG |[M:3/4] F6 |] %11
V:2
 z4 z2 C,C, | F,C,A,,C, F,2 E,F, |[M:3/4] [C,C]2 [C,C][C,C] [C,C]2 |[M:1/4] [C,B,][C,A,] | %4
[M:4/4] [C,G,][C,G,][C,G,][C,G,] [C,G,]2 [C,C][C,C] |[M:3/4] [F,DF][F,CF] [F,CF][F,CF] [F,CF]2 | %6
[M:1/4] [F,CF][F,CG] |[M:4/4] z4 .A,2 z2 | z2 B,4 A,,B,, | %9
 [C,C]2 [C,C][C,C] [C,A,]2 [C,G,C][C,B,C] |[M:3/4] [F,A,C]6 |] %11
V:3
 x8 | x8 |[M:3/4] E2 EE E2 |[M:1/4] x2 |[M:4/4] x8 |[M:3/4] x6 |[M:1/4] x2 |[M:4/4] x8 | %8
 F2- [Fd]4 [CEF][DFG] | x8 |[M:3/4] x6 |] %11
V:4
 x8 | x8 |[M:3/4] x6 |[M:1/4] x2 |[M:4/4] x8 |[M:3/4] x6 |[M:1/4] x2 | %7
[M:4/4] [F,A,F]2 [F,A,F]2 [F,F]-[F,CF]C,A,, | B,,6 z2 | x8 |[M:3/4] x6 |] %11

